newicons/emoji_barber_pole.svg

<?xml version="1.0" encoding="UTF-8" standalone="no"?>
<svg
   version="1.2"
   viewBox="0 0 48 48"
   id="svg9"
   sodipodi:docname="emoji_barber_pole.svg"
   inkscape:version="1.4 (86a8ad7, 2024-10-11)"
   xmlns:inkscape="http://www.inkscape.org/namespaces/inkscape"
   xmlns:sodipodi="http://sodipodi.sourceforge.net/DTD/sodipodi-0.dtd"
   xmlns="http://www.w3.org/2000/svg"
   xmlns:svg="http://www.w3.org/2000/svg">
  <sodipodi:namedview
     id="namedview1"
     pagecolor="#ffffff"
     bordercolor="#000000"
     borderopacity="0.25"
     inkscape:showpageshadow="2"
     inkscape:pageopacity="0.0"
     inkscape:pagecheckerboard="0"
     inkscape:deskcolor="#d1d1d1"
     inkscape:zoom="39.9375"
     inkscape:cx="24"
     inkscape:cy="24"
     inkscape:window-width="3840"
     inkscape:window-height="2097"
     inkscape:window-x="-8"
     inkscape:window-y="-8"
     inkscape:window-maximized="1"
     inkscape:current-layer="svg9" />
  <defs
     id="defs1" />
  <path
     d="M 32.892817,8.583334 H 15.107182 c -0.854174,0 -1.546576,-0.690205 -1.546576,-1.5416674 v 0 C 13.560606,6.1902041 14.253008,5.5 15.107182,5.5 h 17.785635 c 0.854174,0 1.546577,0.6902041 1.546577,1.5416666 v 0 c 0,0.8514624 -0.692403,1.5416674 -1.546577,1.5416674"
     fill="none"
     stroke="#ffffff"
     stroke-linecap="round"
     stroke-linejoin="round"
     stroke-width="1.15809"
     id="path1"
     style="stroke-width:1;stroke-dasharray:none" />
  <path
     d="M 32.892817,42.5 H 15.107182 c -0.854174,0 -1.546576,-0.690204 -1.546576,-1.541666 v 0 c 0,-0.851463 0.692402,-1.541668 1.546576,-1.541668 h 17.785635 c 0.854174,0 1.546577,0.690205 1.546577,1.541668 v 0 c 0,0.851462 -0.692403,1.541666 -1.546577,1.541666"
     fill="none"
     stroke="#ffffff"
     stroke-linecap="round"
     stroke-linejoin="round"
     stroke-width="1.15809"
     id="path2"
     style="stroke-width:1;stroke-dasharray:none" />
  <path
     d="m 27.729184,8.583334 -12.235358,6.9375 V 12.4375 l 6.54318,-3.854166 h 5.692178"
     fill="none"
     stroke="#ffffff"
     stroke-linecap="round"
     stroke-linejoin="round"
     stroke-width="1.15809"
     id="path3"
     style="stroke-width:1;stroke-dasharray:none" />
  <path
     d="M 15.493826,24.770834 32.506173,14.75 V 11.666666 L 15.493826,21.6875 v 3.083334"
     fill="none"
     stroke="#ffffff"
     stroke-linecap="round"
     stroke-linejoin="round"
     stroke-width="1.15809"
     id="path4"
     style="stroke-width:1;stroke-dasharray:none" />
  <path
     d="M 32.506173,20.916666 15.493826,30.9375 v 3.083334 L 32.506173,24 v -3.083334"
     fill="none"
     stroke="#ffffff"
     stroke-linecap="round"
     stroke-linejoin="round"
     stroke-width="1.15809"
     id="path5"
     style="stroke-width:1;stroke-dasharray:none" />
  <path
     d="m 32.506173,30.166666 -15.703787,9.25 h 5.23462 L 32.506173,33.25 v -3.083334"
     fill="none"
     stroke="#ffffff"
     stroke-linecap="round"
     stroke-linejoin="round"
     stroke-width="1.15809"
     id="path6"
     style="stroke-width:1;stroke-dasharray:none" />
  <path
     d="m 32.506173,8.583334 h -4.776989 l -12.235358,6.9375 V 21.6875 L 32.506173,11.666666 V 8.583334"
     fill="none"
     stroke="#ffffff"
     stroke-linecap="round"
     stroke-linejoin="round"
     stroke-width="1.15809"
     id="path7"
     style="stroke-width:1;stroke-dasharray:none" />
  <path
     d="m 32.506173,30.166666 -15.703787,9.25 h -1.30856 V 34.020834 L 32.506173,24 v 6.166666"
     fill="none"
     stroke="#ffffff"
     stroke-linecap="round"
     stroke-linejoin="round"
     stroke-width="1.15809"
     id="path8"
     style="stroke-width:1;stroke-dasharray:none" />
  <path
     d="M 15.493826,8.583334 H 32.506173 V 39.416666 H 15.493826 V 8.583334"
     fill="none"
     stroke="#ffffff"
     stroke-linecap="round"
     stroke-linejoin="round"
     stroke-width="1.15809"
     id="path9"
     style="stroke-width:1;stroke-dasharray:none" />
</svg>

<?xml version="1.0" encoding="UTF-8"?><svg id="a" xmlns="http://www.w3.org/2000/svg" viewBox="0 0 48 48"><path id="e" d="M32.8928,8.5833H15.1072c-.8542,0-1.5466-.6902-1.5466-1.5417h0c0-.8515.6924-1.5417,1.5466-1.5417h17.7856c.8542,0,1.5466.6902,1.5466,1.5417h0c0,.8515-.6924,1.5417-1.5466,1.5417" style="fill:none; stroke:#fff; stroke-linecap:round; stroke-linejoin:round;"/><path id="f" d="M32.8928,42.5H15.1072c-.8542,0-1.5466-.6902-1.5466-1.5417h0c0-.8515.6924-1.5417,1.5466-1.5417h17.7856c.8542,0,1.5466.6902,1.5466,1.5417h0c0,.8515-.6924,1.5417-1.5466,1.5417" style="fill:none; stroke:#fff; stroke-linecap:round; stroke-linejoin:round;"/><path id="g" d="M27.7292,8.5833l-12.2354,6.9375v-3.0833l6.5432-3.8542h5.6922" style="fill:none; stroke:#fff; stroke-linecap:round; stroke-linejoin:round;"/><path id="h" d="M15.4938,24.7708l17.0123-10.0208v-3.0833l-17.0123,10.0208v3.0833" style="fill:none; stroke:#fff; stroke-linecap:round; stroke-linejoin:round;"/><path id="i" d="M32.5062,20.9167l-17.0123,10.0208v3.0833l17.0123-10.0208v-3.0833" style="fill:none; stroke:#fff; stroke-linecap:round; stroke-linejoin:round;"/><path id="j" d="M32.5062,30.1667l-15.7038,9.25h5.2346l10.4692-6.1667v-3.0833" style="fill:none; stroke:#fff; stroke-linecap:round; stroke-linejoin:round;"/><path id="k" d="M32.5062,8.5833h-4.777l-12.2354,6.9375v6.1667l17.0123-10.0208v-3.0833" style="fill:none; stroke:#fff; stroke-linecap:round; stroke-linejoin:round;"/><path id="l" d="M32.5062,30.1667l-15.7038,9.25h-1.3086v-5.3958l17.0123-10.0208v6.1667" style="fill:none; stroke:#fff; stroke-linecap:round; stroke-linejoin:round;"/><path id="m" d="M15.4938,8.5833h17.0123v30.8333H15.4938V8.5833" style="fill:none; stroke:#fff; stroke-linecap:round; stroke-linejoin:round;"/></svg>
